X:139
T:The Pastor and the Piper 
R:waltz  
C: 2009, 2010 L.E. McCullough 
M:3/4
L:1/8
K:D
de|| f3d gd | a3A de | f3d gd | a3a fd |
e3d ef | g2 f2 e2 | d3e dG | A3A de|
f3d gd | a3A de | f3d gd | a3a fd |
e3d ef | g2 f2 e2 | d3e fe |d4 fd |]
|: e3A ce | f3d ef | g2 a2 ge | f4 ef |
g3a ge | f2 A2 de | f3g fd | e4 dc |
B2 d2 g2 | f2 d2-de/2f/2 | g3a bg | e4 ed |
e3d ef | g2 f2 e2 |1 d3e fe | d4 fd :|2 d3e fe | d3A de |]

